X:1
T: Callam Shiarghlas
P:Note tempo
R:Strathspey
Q: 64
K:G
M:2/4
L:1/16
ba|g3G cBAG|FA3 A2ba|g3G B3d|g4 agfe|d3G cBAG|FA3 A3B|E2FG D2EF|G6ba|
g3G cBAG|FA3 A2ba|g3G B3| g4 agfe|d3G cBAG|FA3 A3B|E2FG D2EF|G6d2|
g3a b3g|agfe d3d|g3a babc'|a4 d3d|gfga gabc'|be3 e3b|a3e fgaf|g6d2|
g3a b3g|agfe d3d|g3a babc'|a4 d3d|gfga gabc'|be3 e3b|a3e fgaf|g6||
